X:22
T:The Morning Mist
C:Corwin Zekley
L:1/8
M:3/4
K:Emin
 x3 d ^cA |"Em" B3 E EF | G3 F GB |"D" AB AG FE | D3 E FG |$ AB AG FE | D3 A, ^CD |"Bm" ^C2 B,4- | %8
 B,3 d ^cA |$"Em" B3 E EF | G3 F GB |"D" AB AG FE | D3 E FG |$ AB AG FE | D3 E FG |"Em" E6 | %16
 GF GA Bc |$"G" d6 | GF GA Be |"D" d2 A3 G | F3 G AB |$"C" E3 F GB |"G" D3 F GB |"D" A6 | %24
 GF GA Bc |$"G" d6 | GF GA Be |"D" d2 A3 G | F3 G AB |$"C" E3 F GB |"G" D3 E FG |"Bm" A6- | %32
 A3 x3 |] %33

